packages/merlin-www-assets/imports/brides/icons/gallery-zoom-out.svg

<svg viewBox="0 0 16 16" xmlns="http://www.w3.org/2000/svg"><path d="m8 16c-4.418278 0-8-3.581722-8-8s3.581722-8 8-8 8 3.581722 8 8-3.581722 8-8 8zm0-1c3.8659932 0 7-3.1340068 7-7 0-3.86599325-3.1340068-7-7-7-3.86599325 0-7 3.13400675-7 7 0 3.8659932 3.13400675 7 7 7zm-4-6.5v-1h8v1z"/></svg>

<svg xmlns="http://www.w3.org/2000/svg" viewBox="0 0 16 16"><title>zoom-out</title>
  <path d="M8,16 C3.581722,16 0,12.418278 0,8 C0,3.581722 3.581722,0 8,0 C12.418278,0 16,3.581722 16,8 C16,12.418278 12.418278,16 8,16 Z M8,15 C11.8659932,15 15,11.8659932 15,8 C15,4.13400675 11.8659932,1 8,1 C4.13400675,1 1,4.13400675 1,8 C1,11.8659932 4.13400675,15 8,15 Z M4,8.5 L4,7.5 L12,7.5 L12,8.5 L4,8.5 Z"/>
</svg>
